assets/logos/icons/validate-shield.svg

<svg height="24" viewBox="0 0 24 24" width="24" xmlns="http://www.w3.org/2000/svg"><path d="m17.1 8.65346535-1.4-1.45544555-5.4 5.6138614-1.9-2.0792079-1.4 1.5594059 3.3 3.4306931zm2.9-6.65346535h-16c-1.1 0-2 .93564356-2 2.07920792v11.85148518c0 .7277227.4 1.4554455 1 1.7673267l8 4.990099c.3.2079208.7.3118812 1 .3118812.4 0 .7-.1039604 1-.3118812l8-4.990099c.6-.4158416 1-1.039604 1-1.7673267v-11.85148518c0-1.14356436-.9-2.07920792-2-2.07920792zm0 13.9306931-8 4.990099-8-4.990099v-11.85148518h16z" fill="#492f5c" fill-rule="evenodd"/></svg>

<svg xmlns="http://www.w3.org/2000/svg" xmlns:xlink="http://www.w3.org/1999/xlink" width="24" height="24" viewBox="0 0 24 24">
  <defs>
    <path id="validate-shield-a" d="M17.1,8.65346535 L15.7,7.1980198 L10.3,12.8118812 L8.4,10.7326733 L7,12.2920792 L10.3,15.7227723 L17.1,8.65346535 Z M20,2 L4,2 C2.9,2 2,2.93564356 2,4.07920792 L2,15.9306931 C2,16.6584158 2.4,17.3861386 3,17.6980198 L11,22.6881188 C11.3,22.8960396 11.7,23 12,23 C12.4,23 12.7,22.8960396 13,22.6881188 L21,17.6980198 C21.6,17.2821782 22,16.6584158 22,15.9306931 L22,4.07920792 C22,2.93564356 21.1,2 20,2 Z M20,15.9306931 L12,20.9207921 L4,15.9306931 L4,4.07920792 L4,4.07920792 L20,4.07920792 L20,15.9306931 Z"/>
  </defs>
  <use fill="#492F5C" fill-rule="evenodd" xlink:href="#validate-shield-a"/>
</svg>
